sources/design/Outline/ം.svg

<svg:svg xmlns:cc="http://creativecommons.org/ns#" xmlns:dc="http://purl.org/dc/elements/1.1/" xmlns:inkscape="http://www.inkscape.org/namespaces/inkscape" xmlns:rdf="http://www.w3.org/1999/02/22-rdf-syntax-ns#" xmlns:sodipodi="http://sodipodi.sourceforge.net/DTD/sodipodi-0.dtd" xmlns:svg="http://www.w3.org/2000/svg" xml:space="preserve" width="1000" height="1000" version="1.1" style="clip-rule:evenodd;fill-rule:evenodd;image-rendering:optimizeQuality;shape-rendering:geometricPrecision;text-rendering:geometricPrecision" viewBox="0 0 1000 1000" id="svg10" sodipodi:docname="ം.svg" inkscape:version="1.1.1 (3bf5ae0d25, 2021-09-20)"><svg:metadata id="metadata14"><rdf:RDF><cc:Work rdf:about=""><dc:format>image/svg+xml</dc:format><dc:type rdf:resource="http://purl.org/dc/dcmitype/StillImage" /></cc:Work></rdf:RDF></svg:metadata><sodipodi:namedview pagecolor="#ffffff" bordercolor="#666666" borderopacity="1" objecttolerance="10" gridtolerance="10" guidetolerance="10" inkscape:pageopacity="0" inkscape:pageshadow="2" inkscape:window-width="1920" inkscape:window-height="1009" id="namedview12" showgrid="false" inkscape:zoom="1.6978177" inkscape:cx="313.63791" inkscape:cy="603.12718" inkscape:window-x="0" inkscape:window-y="0" inkscape:window-maximized="1" inkscape:current-layer="svg10" showguides="true" inkscape:guide-bbox="true" inkscape:document-rotation="0" inkscape:pagecheckerboard="0"><sodipodi:guide position="0,1000" orientation="0,1" id="guide16" inkscape:label="" inkscape:locked="true" inkscape:color="rgb(0,0,255)" /><sodipodi:guide position="1763.3122,2036.1693" orientation="1000,0" id="guide18" /><sodipodi:guide position="0,200" orientation="0,1" id="guide20" inkscape:label="base" inkscape:locked="true" inkscape:color="rgb(0,0,255)" /><inkscape:grid type="xygrid" id="grid24" originx="-473.37552" originy="-489.69235" /><sodipodi:guide position="0,0" orientation="0,1" id="guide34" inkscape:label="bottom" inkscape:locked="true" inkscape:color="rgb(0,0,255)" /><sodipodi:guide position="225.05109,1693.3186" orientation="0,1" id="guide44" inkscape:label="" inkscape:locked="false" inkscape:color="rgb(0,0,255)" /><sodipodi:guide position="0,900" orientation="0,1" id="guide46" inkscape:label="" inkscape:locked="true" inkscape:color="rgb(0,0,255)" /><sodipodi:guide position="365.6608,599.01239" orientation="1,0" id="guide841" inkscape:label="width" />    </sodipodi:namedview>
 <svg:defs id="defs4"><inkscape:path-effect effect="spiro" id="path-effect851" is_visible="true" lpeversion="1" />
  <svg:style type="text/css" id="style2">
   
    .fil0 {fill:#EF7F1A;fill-rule:nonzero}
   
  </svg:style>
 <inkscape:path-effect effect="spiro" id="path-effect1214" is_visible="true" lpeversion="1" /><inkscape:path-effect effect="spiro" id="path-effect1195" is_visible="true" lpeversion="1" /><inkscape:path-effect effect="spiro" id="path-effect992" is_visible="true" lpeversion="1" /><inkscape:path-effect effect="spiro" id="path-effect1060" is_visible="true" lpeversion="1" /><inkscape:path-effect effect="spiro" id="path-effect1047" is_visible="true" lpeversion="1" /></svg:defs>
 
<svg:g id="path1006-5"><svg:path style="color:#000000;clip-rule:nonzero;fill:#1a5fb4;fill-rule:nonzero;stroke-linecap:round;stroke-linejoin:round;-inkscape-stroke:none;paint-order:fill stroke markers;shape-rendering:auto" d="M 176.26367,389.43359 C 161.23318,389.43321 146.18403999999998,391.2579 131.49219,394.95507999999995 C 102.08958999999999,402.35417999999993 74.744888,417.11806999999993 52.519531,438.02538999999996 C 26.395502,462.60016999999993 8.866833100000001,494.12901999999997 -0.638671869999996,527.2539099999999 C -10.109971999999996,560.2595999999999 -11.632787999999996,594.3586499999999 -8.009765599999996,627.0624999999999 C -2.654601899999996,675.4018299999999 14.590998000000004,724.2011699999999 48.08593700000001,762.9433599999999 C 64.842178,782.3245999999999 85.386272,798.7786099999998 109.00391000000002,810.3164099999999 C 132.66749000000002,821.8766499999999 159.05565,828.2767499999999 186.04687,827.8124999999999 C 223.53882000000002,827.1676399999999 259.03004,813.3519699999999 287.86328000000003,791.4960899999999 C 316.56027000000006,769.7434999999998 338.08331000000004,740.7254599999999 352.55469000000005,709.2304699999999 C 375.49999,659.2931199999998 381.05165000000005,602.2151399999998 367.91211000000004,548.7734399999998 C 358.91706000000005,512.1883899999998 341.1555,477.22218999999984 314.29883000000007,449.18749999999983 C 289.07849000000004,422.86091999999985 256.67447000000004,403.6705299999998 220.92187000000007,394.86132999999984 C 206.30655000000007,391.26020999999986 191.29417000000007,389.43397999999985 176.26367000000008,389.43358999999987 L 176.26367,389.43359 M 176.27167,449.46094 C 186.46709,449.4615 196.68783,450.68507999999997 206.5666,453.11914 C 230.70543999999998,459.06679 253.52087999999998,472.47793 270.97089,490.69336 C 289.64015,510.18151 302.93099,535.77736 309.64863,563.09961 C 319.44667000000004,602.95065 315.20139,646.81817 298.03535000000005,684.17773 C 287.18436,707.79344 271.2558,728.797 251.61933000000005,743.68164 C 232.11911000000003,758.463 208.16480000000004,767.4241000000001 185.01581000000004,767.82227 C 168.28482000000005,768.11004 150.96922000000004,764.04054 135.34199000000004,756.40625 C 119.66881000000004,748.74952 105.31799000000004,737.39969 93.47479900000005,723.70117 C 69.770686,696.28384 55.899692,659.04134 51.625,620.45508 C 48.712948,594.1689299999999 50.133892,567.8455299999999 57.033203,543.80273 C 63.898309,519.87914 76.52522400000001,497.81777 93.630859,481.72656 C 108.15438,468.06433 126.60952,458.05411 146.13477,453.14062 C 155.90684,450.6815 166.07606,449.46037 176.27148,449.46094 L 176.27167,449.46094 M 173.85761,480.59569999999997 C 169.27899,480.77676999999994 164.68529,481.22333 160.09785,481.94336 C 139.92674,485.10933 120.9914,493.40154 104.98651999999998,505.82421999999997 C 88.99401699999999,518.2372899999999 76.40573099999999,534.3930799999999 68.16425199999998,552.7109399999999 C 51.52882399999997,589.68553 54.005227999999974,632.3328799999999 73.30683099999997,667.3339799999999 C 86.05043599999998,690.4429599999999 105.66052999999997,709.5055599999998 129.93183,721.0820299999999 C 154.27983,732.6950899999999 182.105,736.1341199999999 208.85370999999998,729.8749999999999 C 236.58301999999998,723.3864199999999 260.69464999999997,707.0530499999999 277.4416,684.6699199999999 C 294.13094,662.3637799999999 302.65368,635.29549 302.65839,607.9667999999999 C 302.66438999999997,572.0702399999999 287.9029,537.1186099999999 260.94355,512.5957 C 237.24663,491.04037999999997 205.90798,479.32823999999994 173.85761000000002,480.59569999999997 L 173.85761,480.59569999999997 M 176.05097,540.6074199999999 C 191.7932,540.14221 208.80525,546.2784899999999 220.5705,556.98047 C 234.13935,569.32304 242.66165,589.06674 242.65839,607.9570299999999 C 242.65539,622.5492399999999 237.82498999999999,637.46692 229.40058,648.72656 C 221.03377999999998,659.90922 208.27082,668.3903399999999 195.18183,671.4531199999999 C 182.53481,674.4124899999999 167.93263,672.7326999999999 155.76191,666.9277299999999 C 143.51449,661.0861899999999 132.64225,650.6821499999999 125.84785,638.3613299999998 C 115.80593999999999,620.1515499999998 114.58439999999999,595.7686099999999 122.88104999999999,577.3281199999999 C 127.10560999999998,567.9384399999999 133.76684999999998,559.4369299999998 141.77558,553.2206999999999 C 149.77193,547.0140899999999 159.55838,542.7618899999999 169.40252999999998,541.2167999999998 C 171.58061999999998,540.8749299999998 173.80208,540.6738799999998 176.05096999999998,540.6074199999998 L 176.05097,540.6074199999999" id="path14829" /></svg:g></svg:svg>

<svg:svg xmlns:cc="http://creativecommons.org/ns#" xmlns:dc="http://purl.org/dc/elements/1.1/" xmlns:inkscape="http://www.inkscape.org/namespaces/inkscape" xmlns:rdf="http://www.w3.org/1999/02/22-rdf-syntax-ns#" xmlns:sodipodi="http://sodipodi.sourceforge.net/DTD/sodipodi-0.dtd" xmlns:svg="http://www.w3.org/2000/svg" xml:space="preserve" width="1000" height="1000" version="1.1" style="clip-rule:evenodd;fill-rule:evenodd;image-rendering:optimizeQuality;shape-rendering:geometricPrecision;text-rendering:geometricPrecision" viewBox="0 0 1000 1000" id="svg10" sodipodi:docname="ം.svg" inkscape:version="1.1.1 (3bf5ae0d25, 2021-09-20)"><svg:metadata id="metadata14"><rdf:RDF><cc:Work rdf:about=""><dc:format>image/svg+xml</dc:format><dc:type rdf:resource="http://purl.org/dc/dcmitype/StillImage" /></cc:Work></rdf:RDF></svg:metadata><sodipodi:namedview pagecolor="#ffffff" bordercolor="#666666" borderopacity="1" objecttolerance="10" gridtolerance="10" guidetolerance="10" inkscape:pageopacity="0" inkscape:pageshadow="2" inkscape:window-width="1920" inkscape:window-height="1009" id="namedview12" showgrid="false" inkscape:zoom="1.6978177" inkscape:cx="313.63791" inkscape:cy="603.12718" inkscape:window-x="0" inkscape:window-y="0" inkscape:window-maximized="1" inkscape:current-layer="svg10" showguides="true" inkscape:guide-bbox="true" inkscape:document-rotation="0" inkscape:pagecheckerboard="0"><sodipodi:guide position="0,1000" orientation="0,1" id="guide16" inkscape:label="" inkscape:locked="true" inkscape:color="rgb(0,0,255)" /><sodipodi:guide position="1763.3122,2036.1693" orientation="1000,0" id="guide18" /><sodipodi:guide position="0,200" orientation="0,1" id="guide20" inkscape:label="base" inkscape:locked="true" inkscape:color="rgb(0,0,255)" /><inkscape:grid type="xygrid" id="grid24" originx="-473.37552" originy="-489.69235" /><sodipodi:guide position="0,0" orientation="0,1" id="guide34" inkscape:label="bottom" inkscape:locked="true" inkscape:color="rgb(0,0,255)" /><sodipodi:guide position="225.05109,1693.3186" orientation="0,1" id="guide44" inkscape:label="" inkscape:locked="false" inkscape:color="rgb(0,0,255)" /><sodipodi:guide position="0,900" orientation="0,1" id="guide46" inkscape:label="" inkscape:locked="true" inkscape:color="rgb(0,0,255)" /><sodipodi:guide position="365.6608,599.01239" orientation="1,0" id="guide841" inkscape:label="width" />    </sodipodi:namedview>
 <svg:defs id="defs4"><inkscape:path-effect effect="spiro" id="path-effect851" is_visible="true" lpeversion="1" />
  <svg:style type="text/css" id="style2">
   
    .fil0 {fill:#EF7F1A;fill-rule:nonzero}
   
  </svg:style>
 <inkscape:path-effect effect="spiro" id="path-effect1214" is_visible="true" lpeversion="1" /><inkscape:path-effect effect="spiro" id="path-effect1195" is_visible="true" lpeversion="1" /><inkscape:path-effect effect="spiro" id="path-effect992" is_visible="true" lpeversion="1" /><inkscape:path-effect effect="spiro" id="path-effect1060" is_visible="true" lpeversion="1" /><inkscape:path-effect effect="spiro" id="path-effect1047" is_visible="true" lpeversion="1" /></svg:defs>
 
<svg:g id="path1006-5"><svg:path style="color:#000000;clip-rule:nonzero;fill:#1a5fb4;fill-rule:nonzero;stroke-linecap:round;stroke-linejoin:round;-inkscape-stroke:none;shape-rendering:auto" d="m 176.26367,389.43359 c -15.03049,-3.8e-4 -30.07963,1.82431 -44.77148,5.52149 -29.4026,7.3991 -56.747302,22.16299 -78.972659,43.07031 -26.124029,24.57478 -43.6526979,56.10363 -53.15820287,89.22852 -9.47130013,33.00569 -10.99411613,67.10474 -7.37109373,99.80859 5.3551637,48.33933 22.6007636,97.13867 56.0957026,135.88086 16.756241,19.38124 37.300335,35.83525 60.917973,47.37305 23.66358,11.56024 50.05174,17.96034 77.04296,17.49609 37.49195,-0.64486 72.98317,-14.46053 101.81641,-36.31641 28.69699,-21.75259 50.22003,-50.77063 64.69141,-82.26562 22.9453,-49.93735 28.49696,-107.01533 15.35742,-160.45703 -8.99505,-36.58505 -26.75661,-71.55125 -53.61328,-99.58594 -25.22034,-26.32658 -57.62436,-45.51697 -93.37696,-54.32617 -14.61532,-3.60112 -29.6277,-5.42735 -44.6582,-5.42774 z m 0.008,60.02735 c 10.19542,5.6e-4 20.41616,1.22414 30.29493,3.6582 24.13884,5.94765 46.95428,19.35879 64.40429,37.57422 18.66926,19.48815 31.9601,45.084 38.67774,72.40625 9.79804,39.85104 5.55276,83.71856 -11.61328,121.07812 -10.85099,23.61571 -26.77955,44.61927 -46.41602,59.50391 -19.50022,14.78136 -43.45453,23.74246 -66.60352,24.14063 -16.73099,0.28777 -34.04659,-3.78173 -49.67382,-11.41602 -15.67318,-7.65673 -30.024,-19.00656 -41.867191,-32.70508 C 69.770686,696.28384 55.899692,659.04134 51.625,620.45508 c -2.912052,-26.28615 -1.491108,-52.60955 5.408203,-76.65235 6.865106,-23.92359 19.492021,-45.98496 36.597656,-62.07617 14.523521,-13.66223 32.978661,-23.67245 52.503911,-28.58594 9.77207,-2.45912 19.94129,-3.68025 30.13671,-3.67968 z m -2.41406,31.13476 c -4.57862,0.18107 -9.17232,0.62763 -13.75976,1.34766 -20.17111,3.16597 -39.10645,11.45818 -55.11133,23.88086 -15.992503,12.41307 -28.580789,28.56886 -36.822268,46.88672 -16.635428,36.97459 -14.159024,79.62194 5.142579,114.62304 12.743605,23.10898 32.353699,42.17158 56.624999,53.74805 24.348,11.61306 52.17317,15.05209 78.92188,8.79297 27.72931,-6.48858 51.84094,-22.82195 68.58789,-45.20508 16.68934,-22.30614 25.21208,-49.37443 25.21679,-76.70312 0.006,-35.89656 -14.75549,-70.84819 -41.71484,-95.3711 -23.69692,-21.55532 -55.03557,-33.26746 -87.08594,-32 z m 2.19336,60.01172 c 15.74223,-0.46521 32.75428,5.67107 44.51953,16.37305 13.56885,12.34257 22.09115,32.08627 22.08789,50.97656 -0.003,14.59221 -4.8334,29.50989 -13.25781,40.76953 -8.3668,11.18266 -21.12976,19.66378 -34.21875,22.72656 -12.64702,2.95937 -27.2492,1.27958 -39.41992,-4.52539 -12.24742,-5.84154 -23.11966,-16.24558 -29.91406,-28.5664 -10.04191,-18.20978 -11.26345,-42.59272 -2.9668,-61.03321 4.22456,-9.38968 10.8858,-17.89119 18.89453,-24.10742 7.99635,-6.20661 17.7828,-10.45881 27.62695,-12.0039 2.17809,-0.34187 4.39955,-0.54292 6.64844,-0.60938 z" id="path14793" /></svg:g></svg:svg>
